X:156
T:score237
L:1/16
Q:1/4=96
M:2/4
I:linebreak $
K:C
!p! .c.B.c.B .c2.B2 | .d2!<(!(c/e/g/!<)!c'/!mf! e'4) | .f'.e'.f'.e' (d'!>(!c').g!>)!.e | %3
 !tenuto!c4!mf! !tenuto!b4 |!p! .a.A"_cresc.".A.A .A2.G2 |$ .a.A.A.A .A2.G2 | .c'.c.c.c .c.B.d.c | %7
 .c.B.A.G!f! !>!f'2!>(!(d'/b/f/!>)!d/) |!p! .c z z2 z4 |] %9
